packages/core/src/svgs/wampl.svg

<svg width="24" height="24" viewBox="0 0 24 24" fill="none" xmlns="http://www.w3.org/2000/svg">
<g clip-path="url(#clip0_31_20628)">
<path d="M0 0H24V24H0V0Z" fill="#F0F3FA"/>
<path d="M18.4287 17.1429H13.7144V16.7144C14.7858 16.5215 14.6787 15.9429 14.413 15.2229L11.5715 7.0715C10.5001 9.39007 8.14296 14.6829 8.14296 15.6429C8.14296 16.6029 9.42868 16.7144 9.85725 16.7144V17.1429H5.57153V16.7144C6.42868 16.7144 7.17868 15.7029 7.44868 15.2229L12.0001 4.71436C12.9858 6.95578 15.1072 12.3429 15.7501 14.2629C16.393 16.1829 17.8072 16.7144 18.4287 16.7144V17.1429Z" fill="black"/>
</g>
<defs>
<clipPath id="clip0_31_20628">
<rect width="24" height="24" fill="white"/>
</clipPath>
</defs>
</svg>

<svg xmlns="http://www.w3.org/2000/svg" width="24" height="24" fill="none" viewBox="0 0 24 24"><g clip-path="url(#a)"><path fill="#F0F3FA" d="M0 0h24v24H0z"/><path fill="#000" d="M18.429 17.143h-4.715v-.429c1.072-.192.965-.771.699-1.491l-2.841-8.151c-1.072 2.318-3.429 7.61-3.429 8.57s1.286 1.072 1.714 1.072v.429H5.572v-.429c.857 0 1.607-1.011 1.877-1.491L12 4.714c.986 2.242 3.107 7.629 3.75 9.549s2.057 2.451 2.679 2.451z"/></g><defs><clipPath id="a"><path fill="#fff" d="M0 0h24v24H0z"/></clipPath></defs></svg>
